packages/icons/src/cloud-formation-delete.svg

<svg fill="none" viewBox="0 0 33 33" xmlns="http://www.w3.org/2000/svg"><path clip-rule="evenodd" d="m21.6436 11.7548c-.8066-2.00151-1.709-4.29129-2.5477-6.92143-.1846.07942-.4347.2153-.7328.412-.7202.47521-1.6398 1.25197-2.4562 2.24528-1.6394 1.99453-2.7788 4.74165-1.2992 7.66335.0608.12.0697.259.0247.3856-.0449.1265-.14.2299-.2635.2866l-.0014.0006-.0017.0008-.0044.0019-.0126.0056c-.0101.0043-.0235.01-.0402.0168-.0334.0136-.0798.0315-.1381.0518-.1162.0405-.2807.0908-.4836.1345-.4047.087-.9716.1495-1.6178.0482-1.1878-.1862-2.5455-.9095-3.6384-2.8046-.18336.2722-.40434.6416-.62657 1.1116-.556 1.176-1.12346 2.9896-1.12346 5.5007 0 3.9564 2.5465 7.2931 6.05163 8.4438-2.1377-1.5814-3.2335-4.4126-2.1479-7.5115.0909-.2596.3788-.3976.643-.3082.1887.0639.3143.2266.3374.4091l.0077.0127c.0436.0709.1216.1773.2354.313.225.2685.5555.6107.9356.9493.3807.339.7989.6631 1.198.903.3563.2142.6543.3347.8752.3698.2494-.1305.41-.445.4716-.946.0367-.2986.0284-.6016.0094-.8353-.0095-.1155-.0213-.2109-.0305-.2764-.0046-.0327-.0086-.0577-.0113-.0738l-.0029-.0173-.0005-.0029c-.0503-.2701.1316-.5293.4063-.5788.2748-.0495.5384.1293.5888.3994l.0003.0017.0005.0026.0015.0082.0046.0275c.0039.0231.009.0557.0148.0965.0115.0814.0256.1962.0368.3337.0223.2723.0342.6468-.0134 1.0342-.0769.6252-.342 1.5053-1.2353 1.8045-.0594.0199-.1221.0288-.1848.0262-.4886-.0206-1.0034-.2515-1.4589-.5253-.4693-.2821-.9385-.6486-1.3494-1.0145-.2953-.2629-.5669-.5313-.7929-.7766-.6558 3.6 2.0597 6.4957 5.5205 6.4957h.0051c.4615-.0738.9108-.1841 1.3451-.3281.2647-.0877.5517.0521.6409.3124.0893.2602-.053.5423-.3177.63-.9573.3173-1.9795.4888-3.0404.4888-5.4023 0-9.75595-4.432-9.75595-9.8674 0-2.6639.60312-4.6199 1.2177-5.9198.30686-.6491.61568-1.1327.85166-1.458.11798-.1626.21778-.2856.29005-.37.03614-.0422.06541-.0748.08665-.0978.01062-.0115.01923-.0206.02569-.0274l.00805-.0083.00279-.0029.00107-.0011s-.00386.004.00086-.0008c.11618-.1174.28366-.171.44784-.1433.16417.0276.30399.1329.37386.2815 1.02371 2.1777 2.30343 2.8091 3.25323 2.958.4859.0762.917.0311 1.2298-.0349-1.344-3.2181-.0055-6.17519 1.6617-8.20368.8823-1.07343 1.8778-1.91713 2.6793-2.44599.3972-.26207.7673-.46056 1.0662-.5663.1425-.05041.3132-.09615.4811-.09153.0866.00238.2067.0189.3258.08553.1322.07392.233.19357.2796.34244.8574 2.73917 1.7921 5.11385 2.6323 7.19873.0937.2325.1864.4616.2777.6876.724 1.7907 1.3652 3.3769 1.7862 4.7778.0791.2634-.0739.54-.3418.6178-.268.0778-.5493-.0726-.6285-.336-.4069-1.3542-1.0294-2.8944-1.7573-4.6953-.0907-.2244-.1831-.4529-.2769-.6856z" fill="#0278d5" fill-rule="evenodd"/><path d="m21.2236 29.2116.0942.1068 4.7552 1.3479.0216-.8355-3.3304-.8357-.163-.0588z" fill="#b7ca9d"/><path d="m30.872 29.2114-4.8566 1.6211-.0144-1.0018 3.3304-.8358.1451-.1634z" fill="#b7ca9d"/><path d="m26.001 23.4849 3.3304.7761 1.4647-.0694.0759-.1468-4.6403-1.6703z" fill="#3c4929"/><path d="m22.7641 28.9948-1.5406.2165-.0428-.1599v-4.8383l.0428-.1684 1.3921.1035.1485.1129z" fill="#759c3e"/><path d="m26.0946 23.4847-3.3304.7762-1.5406-.2163.0581-.0911 4.7913-1.3637z" fill="#3c4929"/><path d="m26.0408 19.887-5.531 2.7918.0026 7.9004 5.5284 2.7904.0824-.1251v-13.1953zm-1.6174 10.2849-3.2002-.9604v-5.1666l3.2002-.9601zm4.9075-1.1769 1.5406.2165.0863-.1527v-4.8671l-.0863-.1468-1.5406.2164z" fill="#4b612c"/><path d="m26.041 33.3696 5.5417-2.7902.0027-7.9004-5.5444-2.792zm1.6305-10.2848 3.2002.9601v5.1666l-3.2002.9604z" fill="#759c3e"/></svg>

<svg viewBox="0 0 33 33" fill="none" xmlns="http://www.w3.org/2000/svg">
<path fill-rule="evenodd" clip-rule="evenodd" d="M21.6436 11.7548C20.837 9.75329 19.9346 7.46351 19.0959 4.83337C18.9113 4.91279 18.6612 5.04867 18.3631 5.24537C17.6429 5.72058 16.7233 6.49734 15.9069 7.49065C14.2675 9.48518 13.1281 12.2323 14.6077 15.154C14.6685 15.274 14.6774 15.413 14.6324 15.5396C14.5875 15.6661 14.4924 15.7695 14.3689 15.8262L14.3675 15.8268L14.3658 15.8276L14.3614 15.8295L14.3488 15.8351C14.3387 15.8394 14.3253 15.8451 14.3086 15.8519C14.2752 15.8655 14.2288 15.8834 14.1705 15.9037C14.0543 15.9442 13.8898 15.9945 13.6869 16.0382C13.2822 16.1252 12.7153 16.1877 12.0691 16.0864C10.8813 15.9002 9.5236 15.1769 8.4307 13.2818C8.24734 13.554 8.02636 13.9234 7.80413 14.3934C7.24813 15.5694 6.68067 17.383 6.68067 19.8941C6.68067 23.8505 9.22717 27.1872 12.7323 28.3379C10.5946 26.7565 9.4988 23.9253 10.5844 20.8264C10.6753 20.5668 10.9632 20.4288 11.2274 20.5182C11.4161 20.5821 11.5417 20.7448 11.5648 20.9273L11.5725 20.94C11.6161 21.0109 11.6941 21.1173 11.8079 21.253C12.0329 21.5215 12.3634 21.8637 12.7435 22.2023C13.1242 22.5413 13.5424 22.8654 13.9415 23.1053C14.2978 23.3195 14.5958 23.44 14.8167 23.4751C15.0661 23.3446 15.2267 23.0301 15.2883 22.5291C15.325 22.2305 15.3167 21.9275 15.2977 21.6938C15.2882 21.5783 15.2764 21.4829 15.2672 21.4174C15.2626 21.3847 15.2586 21.3597 15.2559 21.3436L15.253 21.3263L15.2525 21.3234C15.2022 21.0533 15.3841 20.7941 15.6588 20.7446C15.9336 20.6951 16.1972 20.8739 16.2476 21.144L16.2479 21.1457L16.2484 21.1483L16.2499 21.1565L16.2545 21.184C16.2584 21.2071 16.2635 21.2397 16.2693 21.2805C16.2808 21.3619 16.2949 21.4767 16.3061 21.6142C16.3284 21.8865 16.3403 22.261 16.2927 22.6484C16.2158 23.2736 15.9507 24.1537 15.0574 24.4529C14.998 24.4728 14.9353 24.4817 14.8726 24.4791C14.384 24.4585 13.8692 24.2276 13.4137 23.9538C12.9444 23.6717 12.4752 23.3052 12.0643 22.9393C11.769 22.6764 11.4974 22.408 11.2714 22.1627C10.6156 25.7627 13.3311 28.6584 16.7919 28.6584L16.797 28.6584C17.2585 28.5846 17.7078 28.4743 18.1421 28.3303C18.4068 28.2426 18.6938 28.3824 18.783 28.6427C18.8723 28.9029 18.73 29.185 18.4653 29.2727C17.508 29.59 16.4858 29.7615 15.4249 29.7615C10.0226 29.7615 5.66895 25.3295 5.66895 19.8941C5.66895 17.2302 6.27207 15.2742 6.88665 13.9743C7.19351 13.3252 7.50233 12.8416 7.73831 12.5163C7.85629 12.3537 7.95609 12.2307 8.02836 12.1463C8.0645 12.1041 8.09377 12.0715 8.11501 12.0485C8.12563 12.037 8.13424 12.0279 8.1407 12.0211L8.14875 12.0128L8.15154 12.0099L8.15261 12.0088C8.15261 12.0088 8.14875 12.0128 8.15347 12.008C8.26965 11.8906 8.43713 11.837 8.60131 11.8647C8.76548 11.8923 8.9053 11.9976 8.97517 12.1462C9.99888 14.3239 11.2786 14.9553 12.2284 15.1042C12.7143 15.1804 13.1454 15.1353 13.4582 15.0693C12.1142 11.8512 13.4527 8.89411 15.1199 6.86562C16.0022 5.79219 16.9977 4.94849 17.7992 4.41963C18.1964 4.15756 18.5665 3.95907 18.8654 3.85333C19.0079 3.80292 19.1786 3.75718 19.3465 3.7618C19.4331 3.76418 19.5532 3.7807 19.6723 3.84733C19.8045 3.92125 19.9053 4.0409 19.9519 4.18977C20.8093 6.92894 21.744 9.30362 22.5842 11.3885C22.6779 11.621 22.7706 11.8501 22.8619 12.0761C23.5859 13.8668 24.2271 15.453 24.6481 16.8539C24.7272 17.1173 24.5742 17.3939 24.3063 17.4717C24.0383 17.5495 23.757 17.3991 23.6778 17.1357C23.2709 15.7815 22.6484 14.2413 21.9205 12.4404C21.8298 12.216 21.7374 11.9875 21.6436 11.7548Z" fill="#0278D5"/>
<path d="M21.2236 29.2116L21.3178 29.3184L26.073 30.6663L26.0946 29.8308L22.7642 28.9951L22.6012 28.9363L21.2236 29.2116Z" fill="#B7CA9D"/>
<path d="M30.872 29.2114L26.0154 30.8325L26.001 29.8307L29.3314 28.9949L29.4765 28.8315L30.872 29.2114Z" fill="#B7CA9D"/>
<path d="M26.001 23.4849L29.3314 24.261L30.7961 24.1916L30.872 24.0448L26.2317 22.3745L26.001 23.4849Z" fill="#3C4929"/>
<path d="M22.7641 28.9948L21.2235 29.2113L21.1807 29.0514V24.2131L21.2235 24.0447L22.6156 24.1482L22.7641 24.2611V28.9948Z" fill="#759C3E"/>
<path d="M26.0946 23.4847L22.7642 24.2609L21.2236 24.0446L21.2817 23.9535L26.073 22.5898L26.0946 23.4847Z" fill="#3C4929"/>
<path d="M26.0408 19.887L20.5098 22.6788L20.5124 30.5792L26.0408 33.3696L26.1232 33.2445V20.0492L26.0408 19.887ZM24.4234 30.1719L21.2232 29.2115V24.0449L24.4234 23.0848V30.1719ZM29.3309 28.995L30.8715 29.2115L30.9578 29.0588V24.1917L30.8715 24.0449L29.3309 24.2613V28.995Z" fill="#4B612C"/>
<path d="M26.041 33.3696L31.5827 30.5794L31.5854 22.679L26.041 19.887V33.3696ZM27.6715 23.0848L30.8717 24.0449V29.2115L27.6715 30.1719V23.0848Z" fill="#759C3E"/>
</svg>
